icons/circle/48/calligragemini.svg

<?xml version="1.0" encoding="UTF-8" standalone="no"?>
<svg id="svg2" xmlns:rdf="http://www.w3.org/1999/02/22-rdf-syntax-ns#" viewBox="0 0 48 48" xmlns:cc="http://creativecommons.org/ns#" xmlns="http://www.w3.org/2000/svg" xmlns:dc="http://purl.org/dc/elements/1.1/" version="1.1">
 <metadata id="metadata37">
  <rdf:RDF>
   <cc:Work rdf:about="">
    <dc:format>image/svg+xml</dc:format>
    <dc:type rdf:resource="http://purl.org/dc/dcmitype/StillImage"/>
    <dc:title/>
   </cc:Work>
  </rdf:RDF>
 </metadata>
 <defs id="defs4">
  <linearGradient id="linearGradient3764" gradientTransform="matrix(0 -1 1 0 -.0000015 48)" gradientUnits="userSpaceOnUse" x2="47" x1="1">
   <stop id="stop7" offset="0" style="stop-color:#f3e6c5"/>
   <stop id="stop9" offset="1" style="stop-color:#f6edd6"/>
  </linearGradient>
 </defs>
 <g id="g11">
  <path id="path13" d="m36.31 5c5.859 4.062 9.688 10.831 9.688 18.5 0 12.426-10.07 22.5-22.5 22.5-7.669 0-14.438-3.828-18.5-9.688 1.037 1.822 2.306 3.499 3.781 4.969 4.085 3.712 9.514 5.969 15.469 5.969 12.703 0 23-10.298 23-23 0-5.954-2.256-11.384-5.969-15.469-1.469-1.475-3.147-2.744-4.969-3.781zm4.969 3.781c3.854 4.113 6.219 9.637 6.219 15.719 0 12.703-10.297 23-23 23-6.081 0-11.606-2.364-15.719-6.219 4.16 4.144 9.883 6.719 16.219 6.719 12.703 0 23-10.298 23-23 0-6.335-2.575-12.06-6.719-16.219z" style="opacity:.05"/>
  <path id="path15" d="m41.28 8.781c3.712 4.085 5.969 9.514 5.969 15.469 0 12.703-10.297 23-23 23-5.954 0-11.384-2.256-15.469-5.969 4.113 3.854 9.637 6.219 15.719 6.219 12.703 0 23-10.298 23-23 0-6.081-2.364-11.606-6.219-15.719z" style="opacity:.1"/>
  <path id="path17" d="m31.25 2.375c8.615 3.154 14.75 11.417 14.75 21.13 0 12.426-10.07 22.5-22.5 22.5-9.708 0-17.971-6.135-21.12-14.75a23 23 0 0 0 44.875 -7 23 23 0 0 0 -16 -21.875z" style="opacity:.2"/>
 </g>
 <g id="g19">
  <path id="path21" d="m24 1c12.703 0 23 10.297 23 23s-10.297 23-23 23-23-10.297-23-23 10.297-23 23-23z" style="fill:url(#linearGradient3764)"/>
 </g>
 <path id="path23" d="m23.918 13c-6.582 0-11.918 5.373-11.918 12s5.336 12 11.918 12h10.08c-1.723-4.161-5-7-10-7-2.531 0-5-2.451-5-5s2.469-5 5-5c5 0 8.277-2.839 10-7z" style="opacity:.1"/>
 <g id="g25">
  <path id="path27" d="m40.03 7.531c3.712 4.084 5.969 9.514 5.969 15.469 0 12.703-10.297 23-23 23-5.954 0-11.384-2.256-15.469-5.969 4.178 4.291 10.01 6.969 16.469 6.969 12.703 0 23-10.298 23-23 0-6.462-2.677-12.291-6.969-16.469z" style="opacity:.1"/>
 </g>
 <path id="path29" d="m15 24c0 10.154 3.416 12 15.334 12h3.666c-1.723-4.161-5-7-10-7-2.531 0-5-2.451-5-5h-4z" style="fill:#e98a2b"/>
 <path id="path31" d="m30.334 12c-11.918 0-15.334 1.846-15.334 12h4c0-2.549 2.469-5 5-5 5 0 8.277-2.839 10-7h-3.666z" style="fill:#0fb5cf"/>
 <path id="path33" d="m23.918 12c-6.582 0-11.918 5.373-11.918 12s5.336 12 11.918 12h7.334c-6.582 0-12.252-5.373-12.252-12s5.67-12 12.252-12" style="fill:#282d34"/>
</svg>

<svg viewBox="0 0 48 48" xmlns="http://www.w3.org/2000/svg">
  <defs>
    <linearGradient id="a" gradientTransform="rotate(-90 24 24)" gradientUnits="userSpaceOnUse" x2="47" x1="1">
      <stop offset="0" stop-color="#f3e6c5"/>
      <stop offset="1" stop-color="#f6edd6"/>
    </linearGradient>
  </defs>
  <path d="M36.31 5c5.859 4.062 9.688 10.831 9.688 18.5 0 12.426-10.07 22.5-22.5 22.5-7.669 0-14.438-3.828-18.5-9.688a23.24 23.24 0 0 0 3.781 4.969 22.923 22.923 0 0 0 15.469 5.969c12.703 0 23-10.298 23-23a22.92 22.92 0 0 0-5.969-15.469A23.216 23.216 0 0 0 36.31 5zm4.969 3.781A22.911 22.911 0 0 1 47.498 24.5c0 12.703-10.297 23-23 23a22.909 22.909 0 0 1-15.719-6.219C12.939 45.425 18.662 48 24.998 48c12.703 0 23-10.298 23-23 0-6.335-2.575-12.06-6.719-16.219z" opacity=".05"/>
  <path d="M41.28 8.781a22.923 22.923 0 0 1 5.969 15.469c0 12.703-10.297 23-23 23A22.92 22.92 0 0 1 8.78 41.281 22.911 22.911 0 0 0 24.499 47.5c12.703 0 23-10.298 23-23A22.909 22.909 0 0 0 41.28 8.781z" opacity=".1"/>
  <path d="M31.25 2.375C39.865 5.529 46 13.792 46 23.505c0 12.426-10.07 22.5-22.5 22.5-9.708 0-17.971-6.135-21.12-14.75a23 23 0 0 0 44.875-7 23 23 0 0 0-16-21.875z" opacity=".2"/>
  <path d="M24 1c12.703 0 23 10.297 23 23S36.703 47 24 47 1 36.703 1 24 11.297 1 24 1z" fill="url(#a)"/>
  <path d="M23.918 13C17.336 13 12 18.373 12 25s5.336 12 11.918 12h10.08c-1.723-4.161-5-7-10-7-2.531 0-5-2.451-5-5s2.469-5 5-5c5 0 8.277-2.839 10-7z" opacity=".1"/>
  <path d="M40.03 7.531A22.922 22.922 0 0 1 45.999 23c0 12.703-10.297 23-23 23A22.92 22.92 0 0 1 7.53 40.031C11.708 44.322 17.54 47 23.999 47c12.703 0 23-10.298 23-23 0-6.462-2.677-12.291-6.969-16.469z" opacity=".1"/>
  <path d="M15 24c0 10.154 3.416 12 15.334 12H34c-1.723-4.161-5-7-10-7-2.531 0-5-2.451-5-5h-4z" fill="#e98a2b"/>
  <path d="M30.334 12C18.416 12 15 13.846 15 24h4c0-2.549 2.469-5 5-5 5 0 8.277-2.839 10-7h-3.666z" fill="#0fb5cf"/>
  <path d="M23.918 12C17.336 12 12 17.373 12 24s5.336 12 11.918 12h7.334C24.67 36 19 30.627 19 24s5.67-12 12.252-12" fill="#282d34"/>
</svg>
